X:1
T: Largo Bay
C:
R:Strathspey
Q: 128
K:A
M:4/4
L:1/16
|:ce3 e3a f3e c3A|GE3 B3E c3E B3d|ce3 e3a f3e c3A|FB3 G3e cA3 A3d|
ce3 e3a f3e c3A|GE3 B3E c3E B3d|ce3 e3a f3e c3A|FB3 G3e cA3 A3d|
((3c2B2A2) E3A F3A E3d|((3c2B2A2) E3A FB3 B3e|((3c2B2A2) E3A F3A E3c|((3d2e2f2) ((3e2f2d2) cA3 A3d|
((3c2B2A2) E3A F3A E3d|((3c2B2A2) E3A FB3 B3e|((3c2B2A2) E3A F3A E3c|((3d2e2f2) ((3e2f2d2) cA3 A4:|
